images/ui-ux-skill.svg

<svg viewBox="0 0 200 200" xmlns="http://www.w3.org/2000/svg" xmlns:xlink="http://www.w3.org/1999/xlink"><clipPath id="a"><path d="m26.8 27.54h144.62v144.92h-144.62z"/></clipPath><g fill="#ffdb57"><path d="m137.91 138.65h-4.83v9.66h-43.47v4.83h43.47v7.25a7.24 7.24 0 0 1 -7.24 7.24h-53.14a7.26 7.26 0 0 1 -6.28-3.63l-4.19 2.41a12.14 12.14 0 0 0 10.47 6h53.14a12.08 12.08 0 0 0 12.07-12.07zm0 0"/><g clip-path="url(#a)"><path d="m96.85 157.97h4.83v4.83h-4.83z"/><path d="m111.34 92.75v-4.83h-7.34a31.42 31.42 0 0 0 -28.89-28.86v-7.37h-4.83v7.37a32.78 32.78 0 0 0 -4.83.75v-13h38.65v-4.81h-38.65v-2.39a7.25 7.25 0 0 1 7.25-7.24h53.14a7.25 7.25 0 0 1 4.79 1.81l3.19-3.62a12 12 0 0 0 -8-3h-53.12a12.09 12.09 0 0 0 -12.08 12.05v21.74a31.45 31.45 0 0 0 -19.2 26.57h-7.37v4.83h7.38a31.25 31.25 0 0 0 28.85 28.88v7.37h4.83v-7.35a31.26 31.26 0 0 0 28.89-28.9zm-41.06 19.33v4.72a26.54 26.54 0 0 1 -9.66-2.8v-4.35a12.08 12.08 0 1 1 24.15 0v4.35a26.34 26.34 0 0 1 -9.66 2.79v-4.72zm-4.83-26.57a7.25 7.25 0 1 1 7.25 7.24 7.26 7.26 0 0 1 -7.25-7.24zm25 24.64c-.26.24-.54.43-.8.65v-1.14a16.91 16.91 0 0 0 -9.13-15 12.08 12.08 0 1 0 -15.56 0 16.89 16.89 0 0 0 -9.13 15v1.15c-.27-.22-.55-.42-.8-.65a26.56 26.56 0 0 1 -8.73-17.41h4.7v-4.83h-4.75a26.6 26.6 0 0 1 24-24v4.68h4.83v-4.71a26.6 26.6 0 0 1 24 24h-4.7v4.83h4.7a26.65 26.65 0 0 1 -8.73 17.41zm0 0"/></g><path d="m164.48 71a2.42 2.42 0 0 0 2.42-2.42v-29a2.41 2.41 0 0 0 -2.42-2.41h-53.14a2.41 2.41 0 0 0 -2.41 2.41v29a2.42 2.42 0 0 0 2.41 2.42zm-50.72-29h48.31v24.18h-48.31zm0 0"/><path d="m118.59 46.86h9.66v4.83h-9.66z"/><path d="m133.08 46.86h24.15v4.83h-24.15z"/><g clip-path="url(#a)"><path d="m118.59 56.52h38.65v4.83h-38.65z"/><path d="m164.06 75.85a7.67 7.67 0 0 0 -5.06 1.93l-21.09 18.57v-20.5h-4.83v24.15h.7l-13.78 12.13a16.9 16.9 0 0 0 -15.9 16.87v4.27a6.28 6.28 0 0 1 -3.5 5.65 2.42 2.42 0 0 0 1.08 4.58h16.91a16.9 16.9 0 0 0 16.86-15.94l34.36-38.95a7.67 7.67 0 0 0 -5.75-12.74zm-45.47 62.8h-11a11.14 11.14 0 0 0 1.39-5.4v-4.25a12.09 12.09 0 0 1 11.02-12l10.59 10.59a12.1 12.1 0 0 1 -12 11.11zm47.6-53.25-33.19 37.6-8.44-8.44 37.65-33.21a2.84 2.84 0 0 1 4 4zm0 0"/></g><path d="m29.22 160.39h53.14a2.42 2.42 0 0 0 2.41-2.39v-19.35a2.41 2.41 0 0 0 -2.41-2.42h-16.91v-12.08h-4.83v12.08h-31.4a2.42 2.42 0 0 0 -2.42 2.42v19.35a2.43 2.43 0 0 0 2.42 2.42zm2.42-19.33h48.3v14.49h-48.3zm0 0"/><path d="m36.47 145.89h12.08v4.83h-12.08z"/><path d="m53.37 145.89h21.74v4.83h-21.74z"/><path d="m29.22 61.35h24.15a2.41 2.41 0 0 0 2.42-2.41v-19.33a2.41 2.41 0 0 0 -2.42-2.41h-24.15a2.42 2.42 0 0 0 -2.42 2.41v19.33a2.42 2.42 0 0 0 2.42 2.41zm2.42-19.35h19.36v14.52h-19.36zm0 0"/><path d="m36.47 46.86h9.66v4.83h-9.66z"/></g></svg>

<svg id="Layer_1" data-name="Layer 1" xmlns="http://www.w3.org/2000/svg" xmlns:xlink="http://www.w3.org/1999/xlink" viewBox="0 0 200 200"><defs><style>.cls-1{fill:none;}.cls-2{fill:#ffdb57;}.cls-3{clip-path:url(#clip-path);}</style><clipPath id="clip-path"><rect class="cls-1" x="26.8" y="27.54" width="144.62" height="144.92"/></clipPath></defs><title>Artboard 1 copyskills-icons</title><path class="cls-2" d="M137.91,138.65h-4.83v9.66H89.61v4.83h43.47v7.25a7.24,7.24,0,0,1-7.24,7.24H72.7A7.26,7.26,0,0,1,66.42,164l-4.19,2.41a12.14,12.14,0,0,0,10.47,6h53.14a12.08,12.08,0,0,0,12.07-12.07Zm0,0"/><g class="cls-3"><rect class="cls-2" x="96.85" y="157.97" width="4.83" height="4.83"/><path class="cls-2" d="M111.34,92.75V87.92H104A31.42,31.42,0,0,0,75.11,59.06V51.69H70.28v7.37a32.78,32.78,0,0,0-4.83.75v-13H104.1V42H65.45V39.61a7.25,7.25,0,0,1,7.25-7.24h53.14a7.25,7.25,0,0,1,4.79,1.81l3.19-3.62a12,12,0,0,0-8-3H72.7A12.09,12.09,0,0,0,60.62,39.61V61.35a31.45,31.45,0,0,0-19.2,26.57H34.05v4.83h7.38a31.25,31.25,0,0,0,28.85,28.88V129h4.83v-7.35A31.26,31.26,0,0,0,104,92.75ZM70.28,112.08v4.72A26.54,26.54,0,0,1,60.62,114v-4.35a12.08,12.08,0,1,1,24.15,0V114a26.34,26.34,0,0,1-9.66,2.79v-4.72ZM65.45,85.51a7.25,7.25,0,1,1,7.25,7.24,7.26,7.26,0,0,1-7.25-7.24Zm25,24.64c-.26.24-.54.43-.8.65v-1.14a16.91,16.91,0,0,0-9.13-15,12.08,12.08,0,1,0-15.56,0,16.89,16.89,0,0,0-9.13,15v1.15c-.27-.22-.55-.42-.8-.65a26.56,26.56,0,0,1-8.73-17.41H51V87.92H46.25a26.6,26.6,0,0,1,24-24V68.6h4.83V63.89a26.6,26.6,0,0,1,24,24h-4.7v4.83h4.7a26.65,26.65,0,0,1-8.73,17.41Zm0,0"/></g><path class="cls-2" d="M164.48,71a2.42,2.42,0,0,0,2.42-2.42v-29a2.41,2.41,0,0,0-2.42-2.41H111.34a2.41,2.41,0,0,0-2.41,2.41v29A2.42,2.42,0,0,0,111.34,71ZM113.76,42h48.31V66.18H113.76Zm0,0"/><rect class="cls-2" x="118.59" y="46.86" width="9.66" height="4.83"/><rect class="cls-2" x="133.08" y="46.86" width="24.15" height="4.83"/><g class="cls-3"><rect class="cls-2" x="118.59" y="56.52" width="38.65" height="4.83"/><path class="cls-2" d="M164.06,75.85A7.67,7.67,0,0,0,159,77.78L137.91,96.35V75.85h-4.83V100h.7L120,112.13A16.9,16.9,0,0,0,104.1,129v4.27a6.28,6.28,0,0,1-3.5,5.65,2.42,2.42,0,0,0,1.08,4.58h16.91a16.9,16.9,0,0,0,16.86-15.94l34.36-38.95a7.67,7.67,0,0,0-5.75-12.74Zm-45.47,62.8h-11a11.14,11.14,0,0,0,1.39-5.4V129A12.09,12.09,0,0,1,120,117l10.59,10.59a12.1,12.1,0,0,1-12,11.11Zm47.6-53.25L133,123l-8.44-8.44,37.65-33.21a2.84,2.84,0,0,1,4,4Zm0,0"/></g><path class="cls-2" d="M29.22,160.39H82.36A2.42,2.42,0,0,0,84.77,158V138.65a2.41,2.41,0,0,0-2.41-2.42H65.45V124.15H60.62v12.08H29.22a2.42,2.42,0,0,0-2.42,2.42V158a2.43,2.43,0,0,0,2.42,2.42Zm2.42-19.33h48.3v14.49H31.64Zm0,0"/><rect class="cls-2" x="36.47" y="145.89" width="12.08" height="4.83"/><rect class="cls-2" x="53.37" y="145.89" width="21.74" height="4.83"/><path class="cls-2" d="M29.22,61.35H53.37a2.41,2.41,0,0,0,2.42-2.41V39.61a2.41,2.41,0,0,0-2.42-2.41H29.22a2.42,2.42,0,0,0-2.42,2.41V58.94a2.42,2.42,0,0,0,2.42,2.41ZM31.64,42H51V56.52H31.64Zm0,0"/><rect class="cls-2" x="36.47" y="46.86" width="9.66" height="4.83"/></svg>
